icons/svgs/messages-outline.svg

<svg width="25" height="24" viewBox="0 0 25 24" fill="none" xmlns="http://www.w3.org/2000/svg">
<path d="M1.875 4.8125V11.6875C1.875 12.2344 2.26562 12.625 2.8125 12.625H4.6875C5.19531 12.625 5.625 13.0547 5.625 13.5625V14.3438L7.89062 12.7812C8.04688 12.7031 8.24219 12.625 8.4375 12.625H13.4375C13.9453 12.625 14.375 12.2344 14.375 11.6875V4.8125C14.375 4.30469 13.9453 3.875 13.4375 3.875H2.8125C2.26562 3.875 1.875 4.30469 1.875 4.8125ZM2.8125 2H13.4375C14.9609 2 16.25 3.28906 16.25 4.8125V11.6875C16.25 13.25 14.9609 14.5 13.4375 14.5H8.71094L5.19531 16.8438C4.92188 17.0391 4.53125 17.0781 4.21875 16.9219C3.90625 16.7266 3.75 16.4141 3.75 16.0625V14.5H2.8125C1.25 14.5 0 13.25 0 11.6875V4.8125C0 3.28906 1.25 2 2.8125 2ZM10 16.6875V15.75H11.875V16.6875C11.875 17.2344 12.2656 17.625 12.8125 17.625H16.5625C16.7188 17.625 16.9141 17.7031 17.0703 17.7812L19.375 19.3438V18.5625C19.375 18.0547 19.7656 17.625 20.3125 17.625H22.1875C22.6953 17.625 23.125 17.2344 23.125 16.6875V9.8125C23.125 9.30469 22.6953 8.875 22.1875 8.875H17.5V7H22.1875C23.7109 7 25 8.28906 25 9.8125V16.6875C25 18.25 23.7109 19.5 22.1875 19.5H21.25V21.0625C21.25 21.4141 21.0547 21.7266 20.7422 21.9219C20.4297 22.0781 20.0781 22.0391 19.7656 21.8438L16.25 19.5H12.8125C11.25 19.5 10 18.25 10 16.6875Z" fill="black"/>
</svg>

<svg xmlns="http://www.w3.org/2000/svg" width="24" height="24" fill="currentColor" class="icon-messages-outline" viewBox="0 0 24 24">
  <mask id="a" width="25" height="21" x="0" y="2" maskUnits="userSpaceOnUse" style="mask-type:alpha">
    <path d="M1.875 4.813v6.875c0 .546.39.937.938.937h1.874a.95.95 0 0 1 .938.938v.78l2.266-1.562c.156-.078.351-.156.547-.156h5c.507 0 .937-.39.937-.937V4.812a.95.95 0 0 0-.937-.937H2.813a.925.925 0 0 0-.938.938M2.813 2h10.625c1.523 0 2.812 1.29 2.812 2.813v6.875a2.826 2.826 0 0 1-2.812 2.812H8.71l-3.516 2.344a.97.97 0 0 1-.976.078.98.98 0 0 1-.469-.86V14.5h-.937A2.8 2.8 0 0 1 0 11.688V4.812A2.826 2.826 0 0 1 2.813 2M10 16.688v-.938h1.875v.938c0 .546.39.937.938.937h3.75c.156 0 .351.078.507.156l2.305 1.563v-.782c0-.507.39-.937.938-.937h1.875c.507 0 .937-.39.937-.937V9.813a.95.95 0 0 0-.937-.938H17.5V7h4.688C23.71 7 25 8.29 25 9.813v6.874a2.826 2.826 0 0 1-2.812 2.813h-.938v1.563c0 .351-.195.664-.508.859-.312.156-.664.117-.976-.078L16.25 19.5h-3.437A2.8 2.8 0 0 1 10 16.688"/>
  </mask>
  <g mask="url(#a)">
    <path d="M0 0h24v24H0z"/>
  </g>
</svg>
